X: 8970
T: Cutting Bracken
R: strathspey
M: 4/4
K: Aminor
|:B|"Am"A<A a2 "G"g<e g2|"Em"e>dB>A "G"G>AB<G|"Am"A<A a2 "G"g<e g2|"Em"e>dB>e "Am"A/A/A A:|
|:g|"Em"e>dB>A "G"G>AB<G|"Em"e>dB>A "G"B2 B>g|"Em"e>dB>A "G"G>AB<d|"Em"e>dB>e "Am"A/A/A A:|

